icons/Business/calendar-check-fill.svg

<svg viewBox="0 0 24 24" xmlns="http://www.w3.org/2000/svg"><path d="M9 1V3H15V1H17V3H21C21.5523 3 22 3.44772 22 4V20C22 20.5523 21.5523 21 21 21H3C2.44772 21 2 20.5523 2 20V4C2 3.44772 2.44772 3 3 3H7V1H9ZM20 8H4V19H20V8ZM15.0355 10.136L16.4497 11.5503L11.5 16.5L7.96447 12.9645L9.37868 11.5503L11.5 13.6716L15.0355 10.136Z"/></svg>

<svg xmlns="http://www.w3.org/2000/svg" viewBox="0 0 24 24">
    <g>
        <path fill="none" d="M0 0h24v24H0z"/>
        <path d="M9 1v2h6V1h2v2h4a1 1 0 0 1 1 1v16a1 1 0 0 1-1 1H3a1 1 0 0 1-1-1V4a1 1 0 0 1 1-1h4V1h2zm11 7H4v11h16V8zm-4.964 2.136l1.414 1.414-4.95 4.95-3.536-3.536L9.38 11.55l2.121 2.122 3.536-3.536z"/>
    </g>
</svg>
